X:1
T:O du Nase aller Nasen
T:O du Nase aller Nasen
T:Friedrich Kuhlau (1786-1832)
C:Friedrich Kuhlau (1786-1832)
L:1/8
M:4/4
K:D
V:1 treble nm="Piano" snm="Pno."
V:1
"^1." F2 D2 | A3 A A2 A2 | A2 GF G2 E2 | C3 C F2 F2 | B,2 B3/2 A/ ^G2 E2 | z2 A3/2 G/ F2 D2 | %6
w: O du|Na- se al- ler|Na- sen! * nein, so|groß ist mei- ne|nicht! O du Na- se|al- ler Na- sen!|
 z2 G F G F E D | C2 E2 A,2 C2 | !fermata!D4"^2." z4 | z4 F2 D2 | B3 B B2 B2 | B2 ^A^G A2 F2 | %12
w: nein so groß ist mei- ne|nicht, ist mei- ne|nicht!|O du|Na- se al- ler|Na- ~sen! * O du|
 d3 d d2 d2 | d2 =cB c4- | c2 BA B4- | B2 B A F E A G | !fermata!F2 F G"^3." A A F D | %17
w: Na- se al- ler|Na- sen, * nein|_ so * groß,|_ nein, so groß ist mei- ne|nicht. O du Na- se al- ler|
 C2 A,2 z2 D3/2 D/ | D2 D2 z2 G3/2 G/ | F2 F2 z4 | z2 D C B, B, E E | A,2 A4 GF | G2 D2 z2 GG | %23
w: Na- sen! O du|Na- se al- ler|Na- sen!|nein, so groß ist mei- ne|nicht! O du _|Na- se! nein, so|
 G2 E2 C2 A,2 | !fermata!D4 |] %25
w: groß ist mei- ne|nicht.|

